X:0073
T:Quick Step. Turkish.
M:6/8
L:1/8
Q:3/8=84
I: :: :: :: ::
% D E ^F G A B c ^c d e ^f g a b
Z:Jack Campin * www.campin.me.uk * 2009
K:G
BGG BGG| GBd gfg|BGG BGG|DEF  G3:|
Bdd Add|^ceg fed|agb gfa|AB^c d3:|
Bcd efg| ABc def|GAB cde|DEF  G3:|
dBG ecA| fdf g3 |ecA dBG|DEF  G3:|

